cy/host-outline-badged.svg

<svg xmlns="http://www.w3.org/2000/svg" viewBox="0 0 36 36" height="1em" width="1em">
  <g data-name="Layer 5">
    <path d="M15 25.78a3 3 0 1 0 3-3 3 3 0 0 0-3 3Zm4.5 0a1.5 1.5 0 1 1-1.5-1.5 1.5 1.5 0 0 1 1.5 1.5ZM12 11.8h12v-1.31c-.07-.1-.15-.19-.21-.29H12Zm0-5.6v1.6h10.73a7 7 0 0 1-.22-1.6Z"/>
    <path d="M26 32H10V4h12.78a7.65 7.65 0 0 1 .88-2H9.5A1.5 1.5 0 0 0 8 3.5V34h20V13.22a7.65 7.65 0 0 1-2-.88Z"/>
    <circle cx="30" cy="6" r="5"/>
  </g>
</svg>

<svg xmlns="http://www.w3.org/2000/svg" viewBox="0 0 36 36" height="1em" width="1em">
  <g data-name="Layer 5">
    <path d="M15,25.78a3,3,0,1,0,3-3A3,3,0,0,0,15,25.78Zm4.5,0a1.5,1.5,0,1,1-1.5-1.5A1.5,1.5,0,0,1,19.5,25.78Z"/>
    <path d="M12,11.8H24V10.49c-.07-.1-.15-.19-.21-.29H12Z"/>
    <path d="M12,6.2V7.8H22.73a7,7,0,0,1-.22-1.6Z"/>
    <path d="M26,32H10V4H22.78a7.65,7.65,0,0,1,.88-2H9.5A1.5,1.5,0,0,0,8,3.5V34H28V13.22a7.65,7.65,0,0,1-2-.88Z"/>
    <circle cx="30" cy="6" r="5"/>
  </g>
</svg>
